svg/black/rep.svg

<svg xmlns="http://www.w3.org/2000/svg" width="32" height="32" viewBox="0 0 32 32">
  <path fill-rule="evenodd" d="M16,32 C7.163444,32 0,24.836556 0,16 C0,7.163444 7.163444,0 16,0 C24.836556,0 32,7.163444 32,16 C32,24.836556 24.836556,32 16,32 Z M25.8925782,20.6619529 L17.2505108,5.43573387 C17.0977686,5.16672045 16.8088051,5 16.4952872,5 C16.1817694,5 15.8928058,5.16672045 15.7400636,5.43573387 L7.10859998,20.6631105 C6.88257086,21.0620016 7.02038971,21.5651816 7.41964371,21.798739 L16.0558201,26.8795476 C16.329383,27.0401508 16.670617,27.0401508 16.9441799,26.8795476 L25.5803563,21.8033695 C25.9796103,21.5698121 26.1174291,21.066632 25.8914,20.667741 L25.8925782,20.6619529 Z M20.582449,16.3116046 C20.3384798,15.622455 19.9176509,15.0068193 19.3606598,14.5242343 C19.2931099,14.4655813 19.2239891,14.4092437 19.1532973,14.3552213 L19.1450499,14.3482755 C19.0759291,14.2957966 19.0048446,14.245247 18.9317965,14.1966269 L18.9176581,14.1873659 C18.8461809,14.1402892 18.7735255,14.0951419 18.6996919,14.051924 L18.6808407,14.0403477 C18.6077926,13.9979015 18.5331735,13.9593141 18.4569835,13.9245854 L18.4345978,13.9130092 C18.3560514,13.8759652 18.277505,13.8408506 18.1989586,13.8076654 L18.1730383,13.7972468 C18.1047029,13.7694639 18.0363675,13.7416809 17.9656758,13.7173708 C17.7735561,13.6488275 17.5766864,13.5938928 17.3765778,13.5529883 C17.2203538,13.8374296 17.0186733,14.095388 16.7792324,14.3170197 C17.3417961,14.3622554 17.8845863,14.5418808 18.3603714,14.8402654 L18.3874699,14.8564721 C18.4322414,14.8854127 18.4758346,14.9155109 18.5194279,14.9467668 L18.5795159,14.9884412 C18.6183963,15.0173818 18.6560986,15.04748 18.6973355,15.0775782 L18.7644926,15.1319865 C18.7998385,15.1620847 18.832828,15.1921829 18.8669957,15.2234387 L18.9353311,15.2882656 C18.9671423,15.3195215 18.9977754,15.3507773 19.0284085,15.3820331 L19.0955657,15.4549634 C19.1238424,15.4866051 19.1517264,15.5190185 19.1792176,15.5522037 L19.2440184,15.6332374 C19.2699387,15.6656508 19.2946808,15.6992219 19.3194229,15.732793 C19.3441651,15.766364 19.3606598,15.7918318 19.3806891,15.8207723 C19.4007185,15.8497129 19.4266388,15.8879145 19.4478463,15.9226432 C19.4690538,15.9573719 19.4867268,15.9863125 19.5055779,16.0187259 C19.524429,16.0511394 19.5456366,16.0870257 19.5644877,16.1205968 C19.5833388,16.1541678 19.5998336,16.1912118 19.6175065,16.2270981 C19.6351795,16.2629844 19.6516742,16.2930826 19.6669907,16.3278113 C19.6823073,16.36254 19.7035148,16.4157907 19.7211878,16.460938 C19.8162762,16.6980571 19.8834765,16.9450755 19.9214811,17.1971864 L20.0298751,17.6011969 C20.0758247,17.7690523 20.5011535,19.2565982 21.4861253,19.7578491 C22.6148371,20.3366608 24.1099677,21.0520719 24.6978875,21.334532 L16.9323979,25.8955678 L16.9323979,22.7699849 C16.9323979,22.2768374 17.9326863,21.6991834 18.3945391,21.4965993 L18.4216376,21.4815502 C18.5170715,21.4352453 18.6113272,21.3843098 18.7020483,21.3299015 L18.7409287,21.3090643 C18.9419157,21.1890473 19.1326276,21.0531568 19.3111756,20.9027385 L19.3594816,20.8599065 L19.4136786,20.8112863 C19.470232,20.7603509 19.5252145,20.7082578 19.5786261,20.6550072 L19.6069028,20.6283818 C19.6658126,20.569343 19.7247224,20.5126195 19.776563,20.4443197 L19.8260472,20.3875962 C19.8700332,20.335889 19.9124482,20.2830242 19.9532924,20.2290018 L19.9886382,20.1838545 C20.0381225,20.11787 20.0852503,20.0495702 20.1312,19.9812704 L20.1465165,19.9604332 C20.2089609,19.8643505 20.2643361,19.7671101 20.3220677,19.6663969 C20.1038492,19.4027678 19.9172508,19.1153278 19.7659592,18.8097557 C19.7035116,18.9831255 19.6266703,19.1511604 19.536211,19.3121642 C19.4977233,19.3816216 19.4584501,19.4495355 19.4183914,19.5159059 L19.3995403,19.5425312 C19.361838,19.5988689 19.3225648,19.6540489 19.2817207,19.7080713 L19.2463748,19.7543762 C19.2055307,19.8068552 19.1627229,19.8577906 19.1179514,19.9071825 L19.0943875,19.9349655 C18.8061558,20.2501808 18.4605101,20.5096981 18.075248,20.7001545 L18.0021999,20.7371984 C17.8054411,20.8240202 16.0687803,21.5938396 16.0687803,22.7653544 L16.0687803,25.8909373 L8.27854857,21.3229558 C8.78046005,21.0173433 10.2437794,20.1653325 11.4478957,19.7902626 C11.9191741,19.6455597 12.9194625,20.2625729 13.4861747,20.7163612 L13.5203424,20.7464594 C13.5945688,20.8159168 13.6735079,20.8830589 13.7559816,20.9467282 L13.7842583,20.9710383 C13.9642797,21.1147789 14.1557634,21.2440769 14.3568615,21.3576845 L14.4923541,21.4306148 L14.5194526,21.4445062 C14.6501658,21.5110226 14.7842633,21.5709117 14.9212174,21.6239379 L14.9801272,21.6470903 L15.0213641,21.663297 C15.2182908,21.734582 15.4203132,21.7914607 15.6257786,21.8334677 C15.7867561,21.5456948 15.9949504,21.285987 16.2419751,21.0648058 C15.9129399,21.0406065 15.5891566,20.970041 15.2805672,20.855276 L15.2275484,20.8355964 L15.1262235,20.793922 L15.0743829,20.7719271 L14.9754144,20.7256222 C14.7455882,20.6144791 14.5290425,20.4785894 14.329763,20.320454 L14.0198975,20.0437821 C13.7357104,19.7990449 13.427472,19.5826637 13.0997264,19.3978283 C12.3291863,18.9671924 11.6858913,18.82712 11.1922272,18.9799263 C10.1624839,19.2982727 9.00196089,19.9164435 8.29386511,20.3239269 L16.0723149,6.60724863 L16.0723149,12.6141558 C16.0723149,12.8271585 15.7518456,13.3828177 14.6832218,13.855128 L14.6089955,13.8944872 C14.5053142,13.944265 14.4039894,13.9986733 14.3050209,14.0565545 L14.2849916,14.0669731 C14.0828958,14.1861306 13.8910022,14.3212465 13.7112102,14.4709836 C13.5980696,14.5654242 13.4899266,14.6654967 13.3872063,14.770808 L13.3766025,14.7812266 C13.2756082,14.8852133 13.1800513,14.9941701 13.0903009,15.1076764 L13.0785189,15.1227255 C13.0353184,15.1782914 12.9932961,15.2346291 12.952452,15.2917385 L12.9383136,15.3125757 C12.9013968,15.3658264 12.8652655,15.4202347 12.8299196,15.4758006 L12.8181376,15.4931649 C12.7827917,15.5495026 12.7490168,15.6069979 12.7168128,15.6656508 L12.694427,15.7073253 C12.6649721,15.7628912 12.6355172,15.8230876 12.6072405,15.8751806 L12.5942804,15.901806 C12.5683601,15.9550566 12.5447962,16.0083073 12.5212322,16.0627156 L12.4964901,16.1217544 C12.4729262,16.1784779 12.4517187,16.2375167 12.4305111,16.291925 L12.4104818,16.3521214 C12.395558,16.3945676 12.3818124,16.4377855 12.369245,16.4817752 C12.3621758,16.5060853 12.3539284,16.5292378 12.3480374,16.5535479 C12.3323281,16.6091138 12.3177971,16.6650656 12.3044442,16.7214032 C12.297375,16.7480286 12.291484,16.7758115 12.285593,16.8035945 C12.2797021,16.8313775 12.2690983,16.8823129 12.2620291,16.9193568 C12.2549599,16.9564008 12.249069,16.9888142 12.243178,17.0247005 C12.237287,17.0605869 12.2290396,17.1196257 12.2231487,17.1670882 C12.2172577,17.2145508 12.2160795,17.2284422 12.2125449,17.2596981 C12.2090103,17.2909539 12.2042975,17.3442046 12.2019411,17.3870366 C12.1995847,17.4298687 12.2019411,17.4715431 12.1948719,17.5143752 C12.1878028,17.5572073 12.1948719,17.5664682 12.1948719,17.5930936 L12.1948719,17.6891763 C12.1950435,17.8995948 12.2111903,18.1097076 12.243178,18.3177658 C12.5786776,18.4000221 12.9030047,18.5212698 13.2092987,18.6789442 C13.1151015,18.3763705 13.0647302,18.0622731 13.0596678,17.7458999 L13.0596678,17.6891763 C13.0596678,17.6127732 13.0596678,17.5375277 13.0679152,17.4576517 L13.0679152,17.3986129 C13.0679152,17.3326283 13.0808753,17.2666438 13.0903009,17.2018169 L13.0903009,17.174034 C13.1009046,17.1011037 13.115043,17.029331 13.1315377,16.958716 L13.1444979,16.9043077 C13.1586362,16.8448831 13.1747383,16.7858443 13.1928039,16.7271914 L13.2045859,16.6889898 C13.2257934,16.6203041 13.2497501,16.5527761 13.2764558,16.4864057 L13.295307,16.4412584 C13.3180854,16.3856925 13.3420421,16.3305125 13.3671769,16.2757183 L13.3860281,16.2340438 C13.4174466,16.1692169 13.4508288,16.1055477 13.4861747,16.043036 L13.5050259,16.0117802 C13.5364444,15.9577578 13.5694339,15.9045071 13.6039943,15.8520282 L13.6287364,15.8149842 C13.6699733,15.7547878 13.7123884,15.6992219 13.7571598,15.6367102 L13.7654072,15.6262916 C13.8078222,15.5718833 13.8525937,15.5186327 13.8985433,15.4665396 L13.9244636,15.4364414 C14.1349783,15.2045314 14.3767855,15.0019999 14.6431632,14.8344773 L15.0119385,14.6643067 C15.2086972,14.5774849 16.9371107,13.7856706 16.9371107,12.6141558 L16.9371107,6.60724863 L24.7756484,20.4269554 C24.0758,20.090087 22.8469417,19.4950686 21.8867119,19.0065516 C21.3376726,18.7264068 20.9641845,17.7401117 20.8675724,17.385879 L20.7615348,16.9714499 C20.7223413,16.7488301 20.6648134,16.529705 20.5895182,16.3162351 L20.582449,16.3116046 Z"/>
</svg>

<svg xmlns="http://www.w3.org/2000/svg" width="32" height="32"><path fill-rule="evenodd" d="M16 32C7.163 32 0 24.837 0 16S7.163 0 16 0s16 7.163 16 16-7.163 16-16 16zm9.893-11.338L17.25 5.436A.867.867 0 0 0 16.495 5a.867.867 0 0 0-.755.436L7.11 20.663a.836.836 0 0 0 .31 1.136l8.637 5.08a.88.88 0 0 0 .888 0l8.636-5.076a.836.836 0 0 0 .311-1.135l.002-.006zm-5.31-4.35a4.237 4.237 0 0 0-1.43-1.957l-.008-.007a4.212 4.212 0 0 0-.213-.151l-.014-.01a4.856 4.856 0 0 0-.218-.135l-.02-.012a2.553 2.553 0 0 0-.223-.115l-.022-.012a6.305 6.305 0 0 0-.236-.105l-.026-.01a4.34 4.34 0 0 0-.796-.244 3.027 3.027 0 0 1-.598.763 3.505 3.505 0 0 1 1.581.523l.027.016.132.09.06.042c.04.03.077.06.118.09l.067.054c.036.03.069.06.103.091l.068.065.093.094.068.073.083.097.065.081.075.1c.025.033.042.059.062.088.02.029.046.067.067.102l.058.096c.018.032.04.068.058.102.02.033.036.07.054.106.017.036.034.066.049.1.015.036.037.089.054.134a3.3 3.3 0 0 1 .2.736l.109.404c.046.168.471 1.656 1.456 2.157 1.129.579 2.624 1.294 3.212 1.577l-7.766 4.56V22.77c0-.493 1-1.07 1.463-1.273l.027-.015c.095-.047.19-.098.28-.152l.039-.02c.2-.121.392-.257.57-.407l.048-.043.055-.049a4.48 4.48 0 0 0 .165-.156l.028-.027c.059-.059.118-.115.17-.184l.049-.056c.044-.052.086-.105.127-.159l.036-.045c.05-.066.096-.134.142-.203l.016-.02c.062-.097.117-.194.175-.295a4.418 4.418 0 0 1-.556-.856c-.062.173-.14.341-.23.502-.038.07-.078.138-.118.204l-.018.027a3.527 3.527 0 0 1-.118.165l-.036.046a2.66 2.66 0 0 1-.128.153l-.024.028a3.456 3.456 0 0 1-1.019.765l-.073.037c-.197.087-1.933.857-1.933 2.028v3.126l-7.79-4.568c.501-.306 1.965-1.158 3.169-1.533.471-.144 1.471.473 2.038.926l.034.03c.075.07.154.137.236.2l.028.025c.18.144.372.273.573.387l.135.073.027.014c.131.066.265.126.402.179l.06.023.04.016c.197.072.4.128.605.17.16-.287.369-.547.616-.768a3.494 3.494 0 0 1-.961-.21l-.053-.02-.102-.041-.052-.022-.099-.046a3.466 3.466 0 0 1-.645-.406l-.31-.276a5.703 5.703 0 0 0-.92-.646c-.77-.43-1.414-.57-1.908-.418-1.03.318-2.19.936-2.898 1.344l7.778-13.717v6.007c0 .213-.32.769-1.389 1.241l-.074.04c-.104.05-.205.104-.304.162l-.02.01a4.345 4.345 0 0 0-.898.704l-.01.01a4.27 4.27 0 0 0-.287.327l-.011.015a5.271 5.271 0 0 0-.127.169l-.014.02a4.943 4.943 0 0 0-.108.164l-.012.017c-.035.057-.069.114-.101.173l-.023.041c-.029.056-.058.116-.087.168l-.013.027c-.026.053-.05.106-.073.16l-.025.06c-.023.056-.044.116-.065.17l-.02.06a2.274 2.274 0 0 0-.042.13c-.007.024-.015.047-.021.072a4.052 4.052 0 0 0-.125.613l-.01.093a2.538 2.538 0 0 0-.011.127c-.002.043 0 .085-.007.127-.007.043 0 .052 0 .08v.095c0 .21.016.42.048.629a4.4 4.4 0 0 1 .966.36 3.317 3.317 0 0 1-.15-.932v-.057c0-.076 0-.151.009-.231v-.06c0-.065.013-.131.022-.196v-.028c.01-.073.025-.145.042-.215l.012-.055c.015-.06.03-.118.049-.177l.012-.038c.02-.069.045-.136.071-.203l.02-.045c.022-.055.046-.11.071-.165l.019-.042c.031-.065.065-.128.1-.191l.019-.031a3.38 3.38 0 0 1 .099-.16l.025-.037c.041-.06.083-.116.128-.178l.008-.01c.043-.055.088-.108.134-.16l.025-.03c.211-.232.453-.435.72-.603l.368-.17c.197-.087 1.925-.878 1.925-2.05V6.607l7.839 13.82c-.7-.337-1.93-.932-2.89-1.42-.548-.28-.922-1.267-1.018-1.621l-.106-.415a4.114 4.114 0 0 0-.172-.655l-.008-.004z"/></svg>
